X:1
T:Title
%%score { ( 1 4 5 ) | ( 2 3 ) }
L:1/8
Q:1/4=100
M:4/4
K:D
V:1 treble nm="Grand Piano"
V:4 treble 
V:5 treble 
V:2 bass 
V:3 bass 
V:1
 [DFA]2 [A,DF]>[A,EG] [DFA]2 [DGB]>[DFA] | [FA]>G [EG]>[DF] [CEG]4 | z4 .[EG]2 z2 | [A,DF]6 z2 | %4
w: Frank~M.~Davis * * * * *||||
 [FA]2 [FA]>[FA] [Fd]2 [Ac]>[GB] | B>^A B>c B4 | e>d [DAc]>[DGB] [DFA]>[EG] [A,DF]>[K:bass][G,CE] | %7
w: |||
 [F,D]6 z2 | [FA]6 z2 | [Ec]6 z2 | [EG]6 z2 | [FA]6 z2 | [DFd]2 [DFd]>[DFd] [Fd]2 [Ad]>[Ad] | %13
w: ||||||
 c>d e>d B4 | [Ec]6 [Fd]>[Ge] | d2- [Fd-][=Fd-] [^Fd]2 z2 |] %16
w: |||
V:2
 D,2 D,>D, D,2 D,>D, | z z/ E/ A,>A, A,4 | A,,2 A,,>A,, z G A,,>A,, | D,6 z2 | %4
 [D,D]2 [D,D]>[D,D] [D,A,]2 [D,D]>[D,D] | D2 z2 z4 | G2[K:bass] z2 z4 | D,6 z2 | %8
 D,2 D,>D, z E[K:treble] D>G | A,2 A,>A, A,2 z2 | A,2 A,>A, z D[K:treble] C>G | D,2 D,>D, D,2 z2 | %12
 D,2 F,>B, A,2 [F,A,]>[F,A,] | E>D [G,CG]>[G,B,G] [G,DG]4 | A,2 A,>A, A,2 [A,,A,]2 | A,2 z2 z4 |] %16
V:3
 x8 | A,2 z2 z4 | z4 A,,2 z2 | x8 | x8 | [G,G]->[G,CG] [G,DG]>[G,DG] [G,DG]4 | %6
 [G,B,]->[G,B,B][K:bass] G,>G, A,>A, A,,>A,, | x8 | z4 D,2[K:treble] z2 | x8 | %10
 z4 A,2[K:treble] z2 | x8 | x8 | [G,G]2 z2 z4 | x8 | D,2- [D,-A,][D,-^G,] [D,A,]2 z2 |] %16
V:4
 x8 | x8 | [CEG]2 [A,CE]>[A,DF] C-[CB] [DFA]>[A,EG] | x8 | x8 | x8 | x15/2[K:bass] x/ | x8 | %8
 D2 D>D z G F>d | x8 | C2 C>C z F E>B | D2 D>D D2 z2 | x8 | x8 | x8 | F2 z2 z4 |] %16
V:5
 x8 | x8 | x8 | x8 | x8 | x8 | x15/2[K:bass] x/ | x8 | z4 D2 z2 | x8 | x8 | x8 | x8 | x8 | x8 | %15
 x8 |] %16

